public/skills/Wordpress.svg

<svg viewBox="0 0 122.52 122.523" xmlns="http://www.w3.org/2000/svg"><g fill="#464342"><path d="m8.708 61.26c0 20.802 12.089 38.779 29.619 47.298l-25.069-68.686c-2.916 6.536-4.55 13.769-4.55 21.388z"/><path d="m96.74 58.608c0-6.495-2.333-10.993-4.334-14.494-2.664-4.329-5.161-7.995-5.161-12.324 0-4.831 3.664-9.328 8.825-9.328.233 0 .454.029.681.042-9.35-8.566-21.807-13.796-35.489-13.796-18.36 0-34.513 9.42-43.91 23.688 1.233.037 2.395.063 3.382.063 5.497 0 14.006-.667 14.006-.667 2.833-.167 3.167 3.994.337 4.329 0 0-2.847.335-6.015.501l19.138 56.925 11.501-34.493-8.188-22.434c-2.83-.166-5.511-.501-5.511-.501-2.832-.166-2.5-4.496.332-4.329 0 0 8.679.667 13.843.667 5.496 0 14.006-.667 14.006-.667 2.835-.167 3.168 3.994.337 4.329 0 0-2.853.335-6.015.501l18.992 56.494 5.242-17.517c2.272-7.269 4.001-12.49 4.001-16.989z"/><path d="m62.184 65.857-15.768 45.819c4.708 1.384 9.687 2.141 14.846 2.141 6.12 0 11.989-1.058 17.452-2.979-.141-.225-.269-.464-.374-.724z"/><path d="m107.376 36.046c.226 1.674.354 3.471.354 5.404 0 5.333-.996 11.328-3.996 18.824l-16.053 46.413c15.624-9.111 26.133-26.038 26.133-45.426.001-9.137-2.333-17.729-6.438-25.215z"/><path d="m61.262 0c-33.779 0-61.262 27.481-61.262 61.26 0 33.783 27.483 61.263 61.262 61.263 33.778 0 61.265-27.48 61.265-61.263-.001-33.779-27.487-61.26-61.265-61.26zm0 119.715c-32.23 0-58.453-26.223-58.453-58.455 0-32.23 26.222-58.451 58.453-58.451 32.229 0 58.45 26.221 58.45 58.451 0 32.232-26.221 58.455-58.45 58.455z"/></g></svg>

<svg width="123" height="123" viewBox="0 0 123 123" fill="none" xmlns="http://www.w3.org/2000/svg">
<g clip-path="url(#clip0_86_79)">
<path d="M8.70801 61.2599C8.70801 82.0619 20.797 100.039 38.327 108.558L13.258 39.8719C10.342 46.4079 8.70801 53.6409 8.70801 61.2599Z" fill="#464342"/>
<path d="M96.74 58.608C96.74 52.113 94.407 47.615 92.406 44.114C89.742 39.785 87.245 36.119 87.245 31.79C87.245 26.959 90.909 22.462 96.07 22.462C96.303 22.462 96.524 22.491 96.751 22.504C87.401 13.938 74.944 8.70801 61.262 8.70801C42.902 8.70801 26.749 18.128 17.352 32.396C18.585 32.433 19.747 32.459 20.734 32.459C26.231 32.459 34.74 31.792 34.74 31.792C37.573 31.625 37.907 35.786 35.077 36.121C35.077 36.121 32.23 36.456 29.062 36.622L48.2 93.547L59.701 59.054L51.513 36.62C48.683 36.454 46.002 36.119 46.002 36.119C43.17 35.953 43.502 31.623 46.334 31.79C46.334 31.79 55.013 32.457 60.177 32.457C65.673 32.457 74.183 31.79 74.183 31.79C77.018 31.623 77.351 35.784 74.52 36.119C74.52 36.119 71.667 36.454 68.505 36.62L87.497 93.114L92.739 75.597C95.011 68.328 96.74 63.107 96.74 58.608Z" fill="#464342"/>
<path d="M62.184 65.8571L46.416 111.676C51.124 113.06 56.103 113.817 61.262 113.817C67.382 113.817 73.251 112.759 78.714 110.838C78.573 110.613 78.445 110.374 78.34 110.114L62.184 65.8571Z" fill="#464342"/>
<path d="M107.376 36.046C107.602 37.72 107.73 39.517 107.73 41.45C107.73 46.783 106.734 52.778 103.734 60.274L87.681 106.687C103.305 97.576 113.814 80.649 113.814 61.261C113.815 52.124 111.481 43.532 107.376 36.046Z" fill="#464342"/>
<path d="M61.262 0C27.483 0 0 27.481 0 61.26C0 95.043 27.483 122.523 61.262 122.523C95.04 122.523 122.527 95.043 122.527 61.26C122.526 27.481 95.04 0 61.262 0ZM61.262 119.715C29.032 119.715 2.809 93.492 2.809 61.26C2.809 29.03 29.031 2.809 61.262 2.809C93.491 2.809 119.712 29.03 119.712 61.26C119.712 93.492 93.491 119.715 61.262 119.715Z" fill="#464342"/>
</g>
<defs>
<clipPath id="clip0_86_79">
<rect width="122.52" height="122.523" fill="white"/>
</clipPath>
</defs>
</svg>
